X:172
T:Polska efter Per Karlsson Viksten
T:(SvL Jämtland 172)
R:Polska
B:Svenska Låtar Jämtland
S:Per Karlsson Viksten
O:Undersåker, Jämtland
M:3/4
L:1/8
K:G
(vc|(B)>{cB})A G2 Bd-|(3d(cA) G2 g2|(f{gf})e de fg|(3a(ba) (3g(fe) d(c|
(B)){cB})A G2 Bd|(3d(cA) G2 g2|(3g(fe) d(e f)g|1(3a(fa) g3:|2(3a(fa) g4]|
|:vgb ba af|(3d(ef) g2 (3G(AB)|(3c(Ac) (3B(AG) AF|(3G(AB) (3c(Ac) B2|
gb ba af|(3d(ef) g2 (3G(AB)|(3c(Ac) (B{cB})G (3A(BA)|1[GG,]6:|2[GG,]4 z]|

